X: 16
T: 13 Munroe Avenue
R: jig
M: 6/8
K: Eminor
E2E EDB,|B,EE FEB,|EFD EFG|BdB GFE|
D2E DB,A,|A,B,D DEF|GBG FAF|EGE DB,A,|
B,2,E EDE|~G3 GFG|A2E EFG|AdA FGA|
B2B BAF|AGF EDB,|A,2E EDB,|EFA FGA||
B2e ede|B2g gfg|c2a aga|efg a2g|
efd d^cd|BeB dfa|g2a bag|f/g/ag fdc|
B2e ede|B2g gfd|c2A AGA|EFG EFG|
AdA GBF|EGF EDB,|A,2E EDB,|EFA AFD||

